X:991
T:Joys of Mabou Mines, The
C:Donald Angus Beaton
S:Album-Ashley MacIsaac, Thank You Very Much
Z:Nigel Gatherer
L:1/8
M:4/4
K:G
c | B2 AB GEDE | GABG A2 Ac | B2 AB GEDE | GBgB G2 G :|
e | gfed e2 g2 | dBgB A2 Ae | gfed e2 ge | dBAB G2 Ge |
gfed e2 g2 | dBgB A2 A2 | B2 AB GEDE | GBgB G2 G |]
<end>
<start>
